X: 22872
T: Lark On The Strand, The
R: jig
M: 6/8
K: Gmajor
|:BA|GEF ~G2A|BAG ABd|edd gdd|edB dBA|
GEF G2A|BAG ABd|edd gdB|AGF G:|
|:Bd|~g3 efg|afd edB|Add fdd|ed^c def|
~g3 ~a3|bag ~f3|edc BcA|BGF G:|

